svg/video_alert.svg

<svg width="24" height="24" viewBox="0 0 24 24" xmlns="http://www.w3.org/2000/svg">
<path d="M17 10.5V7C17 6.73478 16.8946 6.48043 16.7071 6.29289C16.5196 6.10536 16.2652 6 16 6H4C3.73478 6 3.48043 6.10536 3.29289 6.29289C3.10536 6.48043 3 6.73478 3 7V17C3 17.2652 3.10536 17.5196 3.29289 17.7071C3.48043 17.8946 3.73478 18 4 18H16C16.2652 18 16.5196 17.8946 16.7071 17.7071C16.8946 17.5196 17 17.2652 17 17V13.5L21 17.5V6.5L17 10.5ZM10.0014 15C9.92043 15 9.84028 14.9839 9.76561 14.9526C9.69095 14.9213 9.62325 14.8755 9.56647 14.8178C9.5097 14.7601 9.46497 14.6917 9.43491 14.6165C9.40485 14.5413 9.39006 14.4609 9.39138 14.38H10.6214C10.6214 14.4614 10.6053 14.542 10.5742 14.6173C10.543 14.6925 10.4974 14.7608 10.4398 14.8184C10.3822 14.876 10.3139 14.9216 10.2386 14.9528C10.1634 14.984 10.0828 15 10.0014 15ZM12.4614 14.08H7.54138V13.77L8.16138 13.15V11.62C8.12783 11.185 8.2474 10.752 8.49941 10.3959C8.75143 10.0398 9.12002 9.78302 9.54138 9.67V9.46C9.54393 9.3388 9.59322 9.22328 9.67894 9.13756C9.76466 9.05184 9.88018 9.00255 10.0014 9C10.1234 9 10.2404 9.04846 10.3267 9.13473C10.4129 9.221 10.4614 9.338 10.4614 9.46V9.67C10.8836 9.7828 11.2533 10.0392 11.507 10.3951C11.7607 10.7509 11.8825 11.1841 11.8514 11.62V13.15L12.4614 13.77V14.08Z" />
</svg>

<svg width="24" height="24" viewBox="0 0 24 24" xmlns="http://www.w3.org/2000/svg"><path d="M17 10.5V7a1 1 0 0 0-1-1H4a1 1 0 0 0-1 1v10a1 1 0 0 0 1 1h12a1 1 0 0 0 1-1v-3.5l4 4v-11l-4 4zM10.001 15a.61.61 0 0 1-.61-.62h1.23a.622.622 0 0 1-.62.62zm2.46-.92h-4.92v-.31l.62-.62v-1.53a1.87 1.87 0 0 1 1.38-1.95v-.21a.47.47 0 0 1 .46-.46.46.46 0 0 1 .46.46v.21a1.88 1.88 0 0 1 1.39 1.95v1.53l.61.62v.31z"/></svg>
